X:536
T:The Fair Branch
M:C
L:1/8
B:O'Neill's 536
N:"Distinctly" "collected by J. O'Neill"
Z:Transcribed by Dave Wooldridge
K:G
dc \
| B2 B>G A2 {B}A>F | G2 G2 A>G F>G | B2 A>G A2 (3GFE | D2 ^C2 D2 d>c |
B2 B>G A2 {B}A>F | G2 G2 A>G F>G | B2 A>G A2 (3Adc | A2 G2 G2 ||
D^C \
| D2 D=c B2 c2 | d2 dc B A2 z/2 c/2 | B>A B>c d2 c>A | G>F D>^C D2 d>c |
B2 B>G A2 {B}A>F | G2 G2 A>G F>G | B2 A>G A2 (3Adc | A2 G2 G2 ||


